X: 11835
T: Els'
R: barndance
M: 4/4
K: Gmajor
|:A/|B>GD>B B2 B2|c>AF>A c2 c2|B>GD>G B2 B>A|G>AB>G (3ABA G3/2:|
|:B/|d2 d>c B>c d2|A>Bc>B A>B (3cBA|1 d2 d>c B>cd>B|G>A (3BAG (3ABA G3/2:|
[2 (3ded (3cdc (3BcB (3ABA|G>A (3BAG (3ABA G3/2||

